Newaita-dark/apps/24/yakuake.svg

<?xml version="1.0" encoding="UTF-8"?>
<svg xmlns="http://www.w3.org/2000/svg" xmlns:xlink="http://www.w3.org/1999/xlink" width="24pt" height="24pt" viewBox="0 0 24 24" version="1.1">
<defs>
<linearGradient id="linear0" gradientUnits="userSpaceOnUse" x1="254" y1="233.5" x2="254" y2="254.666672" gradientTransform="matrix(0.0468795,0,0,0.0468795,-0.496149,10.023962)">
<stop offset="0" style="stop-color:rgb(0%,0%,0%);stop-opacity:0.27451;"/>
<stop offset="1" style="stop-color:rgb(0%,0%,0%);stop-opacity:0;"/>
</linearGradient>
<radialGradient id="radial0" gradientUnits="userSpaceOnUse" cx="450.908936" cy="189.579361" fx="450.908936" fy="189.579361" r="21.166656" gradientTransform="matrix(0.000000130628,-0.0585994,-0.105479,-0.0000000761539,40.090266,47.641374)">
<stop offset="0" style="stop-color:rgb(0%,0%,0%);stop-opacity:0.313725;"/>
<stop offset="0.222222" style="stop-color:rgb(0%,0%,0%);stop-opacity:0.27451;"/>
<stop offset="1" style="stop-color:rgb(0%,0%,0%);stop-opacity:0;"/>
</radialGradient>
<radialGradient id="radial1" gradientUnits="userSpaceOnUse" cx="450.908936" cy="189.579361" fx="450.908936" fy="189.579361" r="21.166656" gradientTransform="matrix(-0.000000130628,0.0585994,0.105479,0.0000000761539,-16.27549,-5.700735)">
<stop offset="0" style="stop-color:rgb(0%,0%,0%);stop-opacity:0.313725;"/>
<stop offset="0.222222" style="stop-color:rgb(0%,0%,0%);stop-opacity:0.27451;"/>
<stop offset="1" style="stop-color:rgb(0%,0%,0%);stop-opacity:0;"/>
</radialGradient>
<radialGradient id="radial2" gradientUnits="userSpaceOnUse" cx="450.908936" cy="189.579361" fx="450.908936" fy="189.579361" r="21.166656" gradientTransform="matrix(-0.000000130628,-0.0585994,0.105479,-0.0000000761539,-16.27549,47.641374)">
<stop offset="0" style="stop-color:rgb(0%,0%,0%);stop-opacity:0.313725;"/>
<stop offset="0.222222" style="stop-color:rgb(0%,0%,0%);stop-opacity:0.27451;"/>
<stop offset="1" style="stop-color:rgb(0%,0%,0%);stop-opacity:0;"/>
</radialGradient>
<radialGradient id="radial3" gradientUnits="userSpaceOnUse" cx="450.908936" cy="189.579361" fx="450.908936" fy="189.579361" r="21.166656" gradientTransform="matrix(0.000000130628,0.0585994,-0.105479,0.0000000761539,40.090265,-5.700735)">
<stop offset="0" style="stop-color:rgb(0%,0%,0%);stop-opacity:0.313725;"/>
<stop offset="0.222222" style="stop-color:rgb(0%,0%,0%);stop-opacity:0.27451;"/>
<stop offset="1" style="stop-color:rgb(0%,0%,0%);stop-opacity:0;"/>
</radialGradient>
<linearGradient id="linear1" gradientUnits="userSpaceOnUse" x1="306.752655" y1="-16.485477" x2="306.752655" y2="-141.414581" gradientTransform="matrix(0.0540552,0,0,0.14297,-3.681905,23.382369)">
<stop offset="0" style="stop-color:rgb(26.666667%,54.117647%,100%);stop-opacity:1;"/>
<stop offset="1" style="stop-color:rgb(50.980392%,69.411765%,100%);stop-opacity:1;"/>
</linearGradient>
</defs>
<g id="surface1">
<path style=" stroke:none;fill-rule:nonzero;fill:url(#linear0);" d="M 3.472656 21.027344 L 20.339844 21.027344 L 20.339844 21.960938 L 3.472656 21.960938 Z M 3.472656 21.027344 "/>
<path style=" stroke:none;fill-rule:nonzero;fill:url(#radial0);" d="M 20.339844 20.96875 L 22.328125 20.96875 L 22.328125 19.976562 L 20.339844 19.976562 Z M 20.339844 20.96875 "/>
<path style=" stroke:none;fill-rule:nonzero;fill:url(#radial1);" d="M 3.472656 20.96875 L 1.488281 20.96875 L 1.488281 21.960938 L 3.472656 21.960938 Z M 3.472656 20.96875 "/>
<path style=" stroke:none;fill-rule:nonzero;fill:url(#radial2);" d="M 3.472656 20.96875 L 1.488281 20.96875 L 1.488281 19.976562 L 3.472656 19.976562 Z M 3.472656 20.96875 "/>
<path style=" stroke:none;fill-rule:nonzero;fill:url(#radial3);" d="M 20.339844 20.96875 L 22.328125 20.96875 L 22.328125 21.960938 L 20.339844 21.960938 Z M 20.339844 20.96875 "/>
<path style=" stroke:none;fill-rule:nonzero;fill:url(#linear1);" d="M 2.480469 3.164062 L 21.335938 3.164062 C 21.882812 3.164062 22.328125 3.582031 22.328125 4.101562 L 22.328125 20.089844 C 22.328125 20.605469 21.882812 21.027344 21.335938 21.027344 L 2.480469 21.027344 C 1.933594 21.027344 1.488281 20.605469 1.488281 20.089844 L 1.488281 4.101562 C 1.488281 3.582031 1.933594 3.164062 2.480469 3.164062 Z M 2.480469 3.164062 "/>
<path style=" stroke:none;fill-rule:nonzero;fill:rgb(92.54902%,92.54902%,92.54902%);fill-opacity:0.784314;" d="M 6.492188 9.492188 C 6.296875 9.300781 5.984375 9.300781 5.789062 9.492188 C 5.597656 9.6875 5.597656 10 5.789062 10.195312 L 7.195312 11.597656 L 5.789062 13.003906 C 5.597656 13.195312 5.597656 13.507812 5.789062 13.703125 C 5.984375 13.898438 6.296875 13.898438 6.492188 13.703125 L 8.246094 11.949219 C 8.257812 11.9375 8.269531 11.925781 8.28125 11.910156 C 8.441406 11.714844 8.429688 11.429688 8.246094 11.246094 Z M 6.492188 9.492188 "/>
<path style=" stroke:none;fill-rule:nonzero;fill:rgb(100%,100%,100%);fill-opacity:0.392157;" d="M 2.480469 3.164062 C 1.929688 3.164062 1.488281 3.582031 1.488281 4.101562 L 1.488281 4.347656 C 1.488281 3.832031 1.929688 3.414062 2.480469 3.414062 L 21.335938 3.414062 C 21.882812 3.414062 22.328125 3.832031 22.328125 4.347656 L 22.328125 4.101562 C 22.328125 3.582031 21.882812 3.164062 21.335938 3.164062 Z M 2.480469 3.164062 "/>
<path style=" stroke:none;fill-rule:nonzero;fill:rgb(0%,0%,0%);fill-opacity:0.235294;" d="M 2.480469 21.015625 C 1.929688 21.015625 1.488281 20.597656 1.488281 20.078125 L 1.488281 19.828125 C 1.488281 20.347656 1.929688 20.765625 2.480469 20.765625 L 21.335938 20.765625 C 21.882812 20.765625 22.328125 20.347656 22.328125 19.828125 L 22.328125 20.078125 C 22.328125 20.597656 21.882812 21.015625 21.335938 21.015625 Z M 2.480469 21.015625 "/>
<path style=" stroke:none;fill-rule:nonzero;fill:rgb(6.666667%,6.666667%,6.666667%);fill-opacity:0.984314;" d="M 2.976562 4.097656 C 2.671875 4.097656 2.421875 4.347656 2.421875 4.652344 L 2.421875 18.542969 C 2.421875 18.851562 2.671875 19.097656 2.976562 19.097656 L 20.839844 19.097656 C 21.144531 19.097656 21.394531 18.851562 21.394531 18.542969 L 21.394531 4.652344 C 21.394531 4.347656 21.144531 4.097656 20.839844 4.097656 Z M 2.976562 4.214844 L 20.839844 4.214844 C 21.082031 4.214844 21.277344 4.410156 21.277344 4.652344 L 21.277344 18.542969 C 21.277344 18.789062 21.082031 18.980469 20.839844 18.980469 L 2.976562 18.980469 C 2.734375 18.980469 2.539062 18.789062 2.539062 18.542969 L 2.539062 4.652344 C 2.539062 4.410156 2.734375 4.214844 2.976562 4.214844 Z M 2.976562 4.214844 "/>
<path style=" stroke:none;fill-rule:nonzero;fill:rgb(100%,100%,100%);fill-opacity:0.996078;" d="M 2.976562 4.222656 C 2.738281 4.222656 2.546875 4.414062 2.546875 4.652344 L 2.546875 18.542969 C 2.546875 18.78125 2.738281 18.976562 2.976562 18.976562 L 20.839844 18.976562 C 21.074219 18.976562 21.269531 18.78125 21.269531 18.542969 L 21.269531 4.652344 C 21.269531 4.414062 21.074219 4.222656 20.839844 4.222656 Z M 2.976562 4.339844 L 20.839844 4.339844 C 21.011719 4.339844 21.152344 4.476562 21.152344 4.652344 L 21.152344 18.542969 C 21.152344 18.71875 21.011719 18.859375 20.839844 18.859375 L 2.976562 18.859375 C 2.800781 18.859375 2.664062 18.71875 2.664062 18.542969 L 2.664062 4.652344 C 2.664062 4.476562 2.800781 4.339844 2.976562 4.339844 Z M 2.976562 4.339844 "/>
<path style="fill:none;stroke-width:3;stroke-linecap:round;stroke-linejoin:miter;stroke:rgb(12.941177%,12.941177%,12.941177%);stroke-opacity:1;stroke-miterlimit:4;" d="M 52.911614 -147.506445 L 455.123205 -147.506445 C 466.788757 -147.506445 476.28785 -138.59063 476.28785 -127.508355 L 476.28785 213.54241 C 476.28785 224.541359 466.788757 233.5405 455.123205 233.5405 L 52.911614 233.5405 C 41.246061 233.5405 31.746968 224.541359 31.746968 213.54241 L 31.746968 -127.508355 C 31.746968 -138.59063 41.246061 -147.506445 52.911614 -147.506445 Z M 52.911614 -147.506445 " transform="matrix(0.0468795,0,0,0.0468795,0,10.079087)"/>
</g>
</svg>

<svg xmlns="http://www.w3.org/2000/svg" width="32" height="32" viewBox="0 0 24 24"><defs><linearGradient id="a" gradientUnits="userSpaceOnUse" x1="254" y1="233.5" x2="254" y2="254.667" gradientTransform="matrix(.04688 0 0 .04688 -.496 10.024)"><stop offset="0" stop-opacity=".275"/><stop offset="1" stop-opacity="0"/></linearGradient><radialGradient id="b" gradientUnits="userSpaceOnUse" cx="450.909" cy="189.579" fx="450.909" fy="189.579" r="21.167" gradientTransform="matrix(0 -.0586 -.10548 0 40.09 47.641)"><stop offset="0" stop-opacity=".314"/><stop offset=".222" stop-opacity=".275"/><stop offset="1" stop-opacity="0"/></radialGradient><radialGradient id="c" gradientUnits="userSpaceOnUse" cx="450.909" cy="189.579" fx="450.909" fy="189.579" r="21.167" gradientTransform="matrix(0 .0586 .10548 0 -16.275 -5.7)"><stop offset="0" stop-opacity=".314"/><stop offset=".222" stop-opacity=".275"/><stop offset="1" stop-opacity="0"/></radialGradient><radialGradient id="d" gradientUnits="userSpaceOnUse" cx="450.909" cy="189.579" fx="450.909" fy="189.579" r="21.167" gradientTransform="matrix(0 -.0586 .10548 0 -16.275 47.641)"><stop offset="0" stop-opacity=".314"/><stop offset=".222" stop-opacity=".275"/><stop offset="1" stop-opacity="0"/></radialGradient><radialGradient id="e" gradientUnits="userSpaceOnUse" cx="450.909" cy="189.579" fx="450.909" fy="189.579" r="21.167" gradientTransform="matrix(0 .0586 -.10548 0 40.09 -5.7)"><stop offset="0" stop-opacity=".314"/><stop offset=".222" stop-opacity=".275"/><stop offset="1" stop-opacity="0"/></radialGradient><linearGradient id="f" gradientUnits="userSpaceOnUse" x1="306.753" y1="-16.485" x2="306.753" y2="-141.415" gradientTransform="matrix(.05406 0 0 .14297 -3.682 23.382)"><stop offset="0" stop-color="#448aff"/><stop offset="1" stop-color="#82b1ff"/></linearGradient></defs><path d="M3.473 21.027H20.34v.934H3.473zm0 0" fill="url(#a)"/><path d="M20.34 20.969h1.988v-.992H20.34zm0 0" fill="url(#b)"/><path d="M3.473 20.969H1.488v.992h1.985zm0 0" fill="url(#c)"/><path d="M3.473 20.969H1.488v-.992h1.985zm0 0" fill="url(#d)"/><path d="M20.34 20.969h1.988v.992H20.34zm0 0" fill="url(#e)"/><path d="M2.48 3.164h18.856c.547 0 .992.418.992.938V20.09c0 .515-.445.937-.992.937H2.48c-.546 0-.992-.422-.992-.937V4.102c0-.52.446-.938.992-.938zm0 0" fill="url(#f)"/><path d="M6.492 9.492a.502.502 0 0 0-.703 0 .502.502 0 0 0 0 .703l1.406 1.403-1.406 1.406a.495.495 0 1 0 .703.7l1.754-1.755a.493.493 0 0 0 0-.703zm0 0" fill="#ececec" fill-opacity=".784"/><path d="M2.48 3.164c-.55 0-.992.418-.992.938v.246c0-.516.442-.934.992-.934h18.856c.547 0 .992.418.992.934v-.246c0-.52-.445-.938-.992-.938zm0 0" fill="#fff" fill-opacity=".392"/><path d="M2.48 21.016c-.55 0-.992-.418-.992-.938v-.25c0 .52.442.938.992.938h18.856c.547 0 .992-.418.992-.938v.25c0 .52-.445.938-.992.938zm0 0" fill-opacity=".235"/><path d="M2.977 4.098a.557.557 0 0 0-.555.554v13.891c0 .309.25.555.555.555H20.84a.554.554 0 0 0 .555-.555V4.653a.557.557 0 0 0-.555-.555zm0 .117H20.84c.242 0 .437.195.437.437v13.891a.434.434 0 0 1-.437.437H2.977a.434.434 0 0 1-.438-.437V4.653c0-.243.195-.438.438-.438zm0 0" fill="#111" fill-opacity=".984"/><path d="M2.977 4.223a.428.428 0 0 0-.43.43v13.89c0 .238.191.434.43.434H20.84c.234 0 .43-.196.43-.434V4.653a.43.43 0 0 0-.43-.43zm0 .117H20.84a.31.31 0 0 1 .312.312v13.891c0 .176-.14.316-.312.316H2.977a.312.312 0 0 1-.313-.316V4.653c0-.176.137-.313.313-.313zm0 0" fill="#fff" fill-opacity=".996"/><path d="M2.48 3.164h18.856c.547 0 .992.418.992.938V20.09c0 .515-.445.937-.992.937H2.48c-.546 0-.992-.422-.992-.937V4.102c0-.52.446-.938.992-.938zm0 0" fill="none" stroke-width=".14064" stroke-linecap="round" stroke="#212121"/></svg>
